Sources/FrostedUI/Resources/Icons.xcassets/quoteLeft16.imageset/quote-left-16.svg

<svg width="16" height="16" viewBox="0 0 16 16" fill="none" xmlns="http://www.w3.org/2000/svg" data-fui-icon="true">
  <path
    d="M5.13586 3.41425C5.3674 3.26377 5.67777 3.32919 5.82825 3.56073C5.97867 3.79226 5.91229 4.10167 5.68079 4.25214C4.60701 4.94999 3.74841 5.55728 3.16418 6.36249C2.95833 6.64625 2.78334 6.96033 2.64758 7.31952C3.13043 6.99507 3.71408 6.80587 4.33997 6.80585C5.98101 6.80585 7.33313 8.10604 7.33313 9.73651C7.33294 11.3668 5.9809 12.6672 4.33997 12.6672C2.70368 12.6671 1.35452 11.374 1.3468 9.75018C1.25527 8.01385 1.63222 6.77026 2.35461 5.7746C3.06147 4.80044 4.07272 4.10519 5.13586 3.41425ZM12.4698 3.41425C12.7013 3.26401 13.0108 3.32932 13.1613 3.56073C13.3116 3.79209 13.2459 4.10153 13.0148 4.25214C11.941 4.94999 11.0815 5.55728 10.4972 6.36249C10.2914 6.64621 10.1163 6.96037 9.98059 7.31952C10.4634 6.99504 11.0471 6.80592 11.673 6.80585C13.314 6.80585 14.6661 8.10604 14.6661 9.73651C14.6659 11.3668 13.3139 12.6672 11.673 12.6672C10.0368 12.667 8.68752 11.3739 8.67981 9.75018C8.58828 8.01385 8.96529 6.77026 9.68762 5.7746C10.3946 4.80031 11.4066 4.10527 12.4698 3.41425Z"
    fill="currentColor"
  />
</svg>

<svg xmlns="http://www.w3.org/2000/svg" width="16" height="16" fill="none" data-fui-icon="true" viewBox="0 0 16 16"><path fill="currentColor" d="M5.136 3.414a.5.5 0 0 1 .545.838c-1.074.698-1.933 1.305-2.517 2.11a4 4 0 0 0-.516.958 3.03 3.03 0 0 1 1.692-.514c1.641 0 2.993 1.3 2.993 2.93s-1.352 2.931-2.993 2.931c-1.636 0-2.985-1.293-2.993-2.917-.092-1.736.285-2.98 1.008-3.975.706-.975 1.718-1.67 2.78-2.36m7.334 0a.5.5 0 0 1 .545.838c-1.074.698-1.934 1.305-2.518 2.11a4 4 0 0 0-.516.958 3.03 3.03 0 0 1 1.692-.514c1.641 0 2.993 1.3 2.993 2.93s-1.352 2.931-2.993 2.931c-1.636 0-2.985-1.293-2.993-2.917-.092-1.736.285-2.98 1.008-3.975.707-.975 1.719-1.67 2.782-2.36"/></svg>
